poi/svg/1301.svg

<?xml version="1.0" encoding="UTF-8" standalone="no"?>
<svg
   xmlns:dc="http://purl.org/dc/elements/1.1/"
   xmlns:cc="http://creativecommons.org/ns#"
   xmlns:rdf="http://www.w3.org/1999/02/22-rdf-syntax-ns#"
   xmlns:svg="http://www.w3.org/2000/svg"
   xmlns="http://www.w3.org/2000/svg"
   xmlns:sodipodi="http://sodipodi.sourceforge.net/DTD/sodipodi-0.dtd"
   xmlns:inkscape="http://www.inkscape.org/namespaces/inkscape"
   inkscape:version="1.0 (4035a4fb49, 2020-05-01)"
   sodipodi:docname="1301.svg"
   id="svg20"
   version="1.2"
   viewBox="0 0 42.519639 42.519639"
   height="14.999999mm"
   width="14.999999mm">
  <metadata
     id="metadata24">
    <rdf:RDF>
      <cc:Work
         rdf:about="">
        <dc:format>image/svg+xml</dc:format>
        <dc:type
           rdf:resource="http://purl.org/dc/dcmitype/StillImage" />
        <dc:title>Qt SVG Document</dc:title>
      </cc:Work>
    </rdf:RDF>
  </metadata>
  <sodipodi:namedview
     inkscape:current-layer="svg20"
     inkscape:window-maximized="0"
     inkscape:window-y="0"
     inkscape:window-x="0"
     inkscape:cy="28.346482"
     inkscape:cx="28.346482"
     inkscape:zoom="5.8410537"
     showgrid="false"
     id="namedview22"
     inkscape:window-height="480"
     inkscape:window-width="1034"
     inkscape:pageshadow="2"
     inkscape:pageopacity="0"
     guidetolerance="10"
     gridtolerance="10"
     objecttolerance="10"
     borderopacity="1"
     bordercolor="#666666"
     pagecolor="#ffffff" />
  <title
     id="title2">Qt SVG Document</title>
  <desc
     id="desc4">Generated with Qt</desc>
  <defs
     id="defs6" />
  <g
     transform="translate(5.25984,5.25984)"
     id="g18"
     stroke-linejoin="bevel"
     stroke-linecap="square"
     fill-rule="evenodd"
     stroke-width="1"
     stroke="#000000"
     fill="none">
    <g
       id="g10"
       font-style="normal"
       font-weight="400"
       font-size="7.8px"
       font-family="'MS Shell Dlg 2'"
       stroke="none"
       fill-opacity="1"
       fill="#f7901e">
      <path
         id="path8"
         d="M 37.2598,16 C 37.2598,27.7415 27.7415,37.2598 16,37.2598 4.25851,37.2598 -5.25984,27.7415 -5.25984,16 -5.25984,4.25851 4.25851,-5.25984 16,-5.25984 27.7415,-5.25984 37.2598,4.25851 37.2598,16"
         fill-rule="evenodd"
         vector-effect="non-scaling-stroke" />
    </g>
    <g
       id="g14"
       font-style="normal"
       font-weight="400"
       font-size="7.8px"
       font-family="'MS Shell Dlg 2'"
       transform="translate(16,13.7323)"
       stroke="none"
       fill-opacity="1"
       fill="#ffffff">
      <path
         id="path12"
         d="m -6.53857,5.87354 c 0.23795,0.13997 0.40592,0.34643 0.5039,0.61938 0.09798,0.27295 0.07699,0.5214 -0.06299,0.74536 l -0.65088,1.55371 c -0.16796,0.37793 -0.4969,0.5669 -0.98681,0.5669 -0.05599,0 -0.11898,0 -0.18897,0 -0.06998,0 -0.13297,-0.028 -0.18896,-0.08399 C -8.35124,9.17692 -8.5262,8.99495 -8.63818,8.729 -8.75016,8.46305 -8.73617,8.18311 -8.59619,7.88916 l 0.65088,-1.46973 c 0.30794,-0.60188 0.77685,-0.78385 1.40674,-0.54589 m 2.37255,0.73486 c 0.22396,0.08398 0.39543,0.26245 0.51441,0.5354 0.11898,0.27295 0.13647,0.5214 0.05249,0.74536 l -0.90283,2.18364 c -0.11198,0.2379 -0.26245,0.4059 -0.45142,0.5039 -0.18896,0.0979 -0.38143,0.1469 -0.57739,0.1469 -0.06999,0 -0.13298,0 -0.18897,0 -0.05599,0 -0.11198,-0.028 -0.16797,-0.084 -0.27994,-0.0839 -0.47241,-0.2624 -0.57739,-0.5354 -0.10498,-0.2729 -0.09448,-0.52135 0.0315,-0.74531 L -5.53076,7.1543 c 0.08398,-0.27995 0.26245,-0.47941 0.5354,-0.59839 0.27295,-0.11898 0.5494,-0.10148 0.82934,0.05249 m 2.33057,0.71387 c 0.27995,0.09798 0.47941,0.27994 0.59839,0.54589 0.11898,0.26595 0.12948,0.51791 0.03149,0.75586 l -0.94482,2.49858 c -0.08399,0.2239 -0.22396,0.3849 -0.41992,0.4829 -0.19597,0.098 -0.38493,0.1469 -0.5669,0.1469 -0.05599,0 -0.11897,0 -0.18896,0 -0.06999,0 -0.13298,-0.028 -0.18897,-0.0839 -0.23795,-0.112 -0.41292,-0.2905 -0.5249,-0.5354 -0.11198,-0.245 -0.12598,-0.4935 -0.04199,-0.7454 l 0.94482,-2.49854 c 0.08399,-0.22396 0.26245,-0.39543 0.5354,-0.5144 0.27295,-0.11898 0.52841,-0.13648 0.76636,-0.05249 m 2.09961,1.55371 c 0.293945,0.11198 0.496908,0.28344 0.608887,0.5144 0.111979,0.23096 0.097982,0.49341 -0.041992,0.78732 l -0.650879,1.9317 c -0.1959638,0.4199 -0.5389,0.6299 -1.028809,0.6299 -0.111979,0 -0.195967,-0.028 -0.251957,-0.084 -0.29394,-0.084 -0.4969,-0.2485 -0.60888,-0.4934 -0.11198,-0.245 -0.12598,-0.5074 -0.04199,-0.7874 L -1.10059,9.44287 C -0.960612,9.14893 -0.768148,8.94596 -0.523193,8.83398 -0.278239,8.72201 -0.0157878,8.736 0.26416,8.87598 M 7.69678,-2.25195 10.0273,5.87354 9.46045,6.12549 3.30859,-0.236328 1.16699,-0.320313 -0.302734,1.98926 c -0.223959,0.34993 -0.493409,0.55289 -0.808346,0.60888 -0.31495,0.05599 -0.63339,0.05599 -0.95533,0 -0.33593,-0.08398 -0.69287,-0.22395 -1.0708,-0.41992 l 2.750491,-4.34619 c 0.181966,-0.34993 0.524903,-0.5249 1.028809,-0.5249 l 6.71875,0.35693 0.33594,0.08399 m 5.37502,-1.84766 c 0.2939,0.79785 0.4969,1.79867 0.6089,3.00244 0.1119,1.0358093 0.1539,2.35506 0.1259,3.95777 -0.028,1.6027 -0.2099,3.55183 -0.5459,5.84741 L 11.959,8.87598 8.55762,-2.81885 13.0718,-4.09961 M 2.67871,11.2905 c 0.16797,0.224 0.25195,0.4794 0.25195,0.7664 0,0.2869 -0.11198,0.5144 -0.33593,0.6824 -0.20996,0.2099 -0.46892,0.3149 -0.77686,0.3149 -0.29394,0 -0.5389,-0.105 -0.73486,-0.3149 l -0.33594,-0.42 0.71387,-1.8476 c 0,-0.056 0.01399,-0.105 0.04199,-0.147 0.02799,-0.042 0.04199,-0.091 0.04199,-0.147 l 1.13379,1.1128 m 6.4458,-4.1362 c 0.22396,0.18196 0.33594,0.40592 0.33594,0.67187 0,0.26595 -0.11198,0.50391 -0.33594,0.71387 C 8.90055,8.79199 8.6416,8.87598 8.34766,8.79199 8.06771,8.79199 7.82275,8.70801 7.61279,8.54004 7.15088,8.05013 6.73796,7.60221 6.37402,7.19629 6.05208,6.86035 5.74064,6.54191 5.4397,6.24097 5.13875,5.94002 4.94629,5.74756 4.8623,5.66357 4.72233,5.48161 4.57186,5.46411 4.41089,5.61108 4.24992,5.75806 4.24642,5.90153 4.40039,6.0415 l 2.79248,2.91846 c 0.22396,0.23796 0.32194,0.50041 0.29395,0.78735 -0.028,0.28699 -0.12598,0.52839 -0.29395,0.72439 -0.23795,0.1679 -0.49691,0.2519 -0.77685,0.2519 -0.29395,0 -0.5389,-0.1119 -0.73487,-0.3359 C 5.10726,9.8138 4.60335,9.2819 4.16943,8.79199 3.77751,8.38607 3.43107,8.00464 3.13013,7.64771 2.82918,7.29077 2.65072,7.08431 2.59473,7.02832 2.46875,6.88835 2.34977,6.86735 2.23779,6.96533 2.12581,7.06331 2.11182,7.18229 2.1958,7.32227 2.25179,7.39225 2.43026,7.58472 2.7312,7.89966 3.03215,8.2146 3.35758,8.54004 3.70752,8.87598 4.11344,9.2819 4.55436,9.74382 5.03027,10.2617 c 0.20996,0.224 0.30795,0.4794 0.29395,0.7664 -0.014,0.2869 -0.13998,0.5284 -0.37793,0.7243 -0.16797,0.182 -0.41292,0.273 -0.73486,0.273 -0.25196,0 -0.48991,-0.119 -0.71387,-0.3569 L 1.54492,9.61084 C 1.54492,9.49886 1.48893,9.32389 1.37695,9.08594 1.18099,8.66602 0.866048,8.35107 0.432129,8.14111 0.32015,8.08512 0.138184,8.05713 -0.11377,8.05713 h -0.440918 c 0,-0.08399 0,-0.16797 0,-0.25195 0,-0.08399 -0.027994,-0.15398 -0.083984,-0.20997 C -0.750651,7.35726 -0.894124,7.1613 -1.06909,7.00732 -1.24406,6.85335 -1.44352,6.74837 -1.66748,6.69238 -1.77946,6.5804 -1.94043,6.52441 -2.15039,6.52441 c -0.33594,0 -0.63688,0.08399 -0.90283,0.25196 -0.19597,-0.40593 -0.51091,-0.70687 -0.94483,-0.90283 -0.08398,0 -0.16797,-0.014 -0.25195,-0.042 -0.08398,-0.02799 -0.16797,-0.04199 -0.25195,-0.04199 -0.20996,0 -0.39893,0.014 -0.5669,0.04199 -0.16797,0.028 -0.32194,0.06999 -0.46191,0.12598 C -5.71273,5.66357 -5.98568,5.41862 -6.34961,5.22266 -6.43359,5.16667 -6.52808,5.13167 -6.63306,5.11768 c -0.10498,-0.014 -0.22745,-0.049 -0.36743,-0.10498 -0.32194,0 -0.64738,0.10848 -0.97632,0.32543 -0.32894,0.21696 -0.56339,0.47942 -0.70337,0.78736 L -8.93213,6.77637 -9.96094,6.6084 -6.83252,-1.39111 -1.83545,-1.30713 -4.25,2.43018 -3.59912,2.80811 c 0.05599,0.05599 0.24145,0.15047 0.5564,0.28344 0.31494,0.13298 0.71736,0.22746 1.20727,0.28345 0.44792,0.05599 0.839845,-0.0105 1.175782,-0.19946 C -0.32373,2.98657 -0.0157878,2.73812 0.26416,2.43018 V 2.34619 L 1.46094,0.414551 2.84668,0.498535 6.87793,4.76074 9.12451,7.1543 M -7.56738,-2.16797 -12.2495,9.08594 -13.5303,8.79199 c -0.126,-2.32357 -0.1015,-4.2867 0.0735,-5.8894 0.175,-1.6027 0.3744,-2.9219585 0.5984,-3.95777 0.2939,-1.17578 0.6089,-2.1486 0.9448,-2.91845 l 4.34622,1.80566"
         fill-rule="evenodd"
         vector-effect="none" />
    </g>
    <g
       id="g16"
       font-style="normal"
       font-weight="400"
       font-size="7.8px"
       font-family="'MS Shell Dlg 2'"
       stroke="none"
       fill-opacity="1"
       fill="#f7901e" />
  </g>
</svg>

<?xml version="1.0" encoding="UTF-8" standalone="no"?>
<svg width="11.2889mm" height="11.2889mm"
 viewBox="0 0 32 32"
 xmlns="http://www.w3.org/2000/svg" xmlns:xlink="http://www.w3.org/1999/xlink"  version="1.2" baseProfile="tiny">
<title>Qt SVG Document</title>
<desc>Generated with Qt</desc>
<defs>
</defs>
<g fill="none" stroke="black" stroke-width="1" fill-rule="evenodd" stroke-linecap="square" stroke-linejoin="bevel" >

<g fill="#f7901e" fill-opacity="1" stroke="none" transform="matrix(1,0,0,1,0,0)"
font-family="MS Shell Dlg 2" font-size="7.8" font-weight="400" font-style="normal" 
>
<path vector-effect="non-scaling-stroke" fill-rule="evenodd" d="M37.2598,16 C37.2598,27.7415 27.7415,37.2598 16,37.2598 C4.25851,37.2598 -5.25984,27.7415 -5.25984,16 C-5.25984,4.25851 4.25851,-5.25984 16,-5.25984 C27.7415,-5.25984 37.2598,4.25851 37.2598,16 "/>
</g>

<g fill="#ffffff" fill-opacity="1" stroke="none" transform="matrix(1,0,0,1,16,13.7323)"
font-family="MS Shell Dlg 2" font-size="7.8" font-weight="400" font-style="normal" 
>
<path vector-effect="none" fill-rule="evenodd" d="M-6.53857,5.87354 C-6.30062,6.01351 -6.13265,6.21997 -6.03467,6.49292 C-5.93669,6.76587 -5.95768,7.01432 -6.09766,7.23828 L-6.74854,8.79199 C-6.9165,9.16992 -7.24544,9.35889 -7.73535,9.35889 C-7.79134,9.35889 -7.85433,9.35889 -7.92432,9.35889 C-7.9943,9.35889 -8.05729,9.33089 -8.11328,9.2749 C-8.35124,9.17692 -8.5262,8.99495 -8.63818,8.729 C-8.75016,8.46305 -8.73617,8.18311 -8.59619,7.88916 L-7.94531,6.41943 C-7.63737,5.81755 -7.16846,5.63558 -6.53857,5.87354 M-4.16602,6.6084 C-3.94206,6.69238 -3.77059,6.87085 -3.65161,7.1438 C-3.53263,7.41675 -3.51514,7.6652 -3.59912,7.88916 L-4.50195,10.0728 C-4.61393,10.3107 -4.7644,10.4787 -4.95337,10.5767 C-5.14233,10.6746 -5.3348,10.7236 -5.53076,10.7236 C-5.60075,10.7236 -5.66374,10.7236 -5.71973,10.7236 C-5.77572,10.7236 -5.83171,10.6956 -5.8877,10.6396 C-6.16764,10.5557 -6.36011,10.3772 -6.46509,10.1042 C-6.57007,9.8313 -6.55957,9.58285 -6.43359,9.35889 L-5.53076,7.1543 C-5.44678,6.87435 -5.26831,6.67489 -4.99536,6.55591 C-4.72241,6.43693 -4.44596,6.45443 -4.16602,6.6084 M-1.83545,7.32227 C-1.5555,7.42025 -1.35604,7.60221 -1.23706,7.86816 C-1.11808,8.13411 -1.10758,8.38607 -1.20557,8.62402 L-2.15039,11.1226 C-2.23438,11.3465 -2.37435,11.5075 -2.57031,11.6055 C-2.76628,11.7035 -2.95524,11.7524 -3.13721,11.7524 C-3.1932,11.7524 -3.25618,11.7524 -3.32617,11.7524 C-3.39616,11.7524 -3.45915,11.7244 -3.51514,11.6685 C-3.75309,11.5565 -3.92806,11.378 -4.04004,11.1331 C-4.15202,10.8881 -4.16602,10.6396 -4.08203,10.3877 L-3.13721,7.88916 C-3.05322,7.6652 -2.87476,7.49373 -2.60181,7.37476 C-2.32886,7.25578 -2.0734,7.23828 -1.83545,7.32227 M0.26416,8.87598 C0.558105,8.98796 0.761068,9.15942 0.873047,9.39038 C0.985026,9.62134 0.971029,9.88379 0.831055,10.1777 L0.180176,12.1094 C-0.0157878,12.5293 -0.358724,12.7393 -0.848633,12.7393 C-0.960612,12.7393 -1.0446,12.7113 -1.10059,12.6553 C-1.39453,12.5713 -1.59749,12.4068 -1.70947,12.1619 C-1.82145,11.9169 -1.83545,11.6545 -1.75146,11.3745 L-1.10059,9.44287 C-0.960612,9.14893 -0.768148,8.94596 -0.523193,8.83398 C-0.278239,8.72201 -0.0157878,8.736 0.26416,8.87598 M7.69678,-2.25195 L10.0273,5.87354 L9.46045,6.12549 L3.30859,-0.236328 L1.16699,-0.320313 L-0.302734,1.98926 C-0.526693,2.33919 -0.796143,2.54215 -1.11108,2.59814 C-1.42603,2.65413 -1.74447,2.65413 -2.06641,2.59814 C-2.40234,2.51416 -2.75928,2.37419 -3.13721,2.17822 L-0.386719,-2.16797 C-0.204753,-2.5179 0.138184,-2.69287 0.64209,-2.69287 L7.36084,-2.33594 L7.69678,-2.25195 M13.0718,-4.09961 C13.3657,-3.30176 13.5687,-2.30094 13.6807,-1.09717 C13.7926,-0.0613607 13.8346,1.25789 13.8066,2.8606 C13.7786,4.4633 13.5967,6.41243 13.2607,8.70801 L11.959,8.87598 L8.55762,-2.81885 L13.0718,-4.09961 M2.67871,11.2905 C2.84668,11.5145 2.93066,11.7699 2.93066,12.0569 C2.93066,12.3438 2.81868,12.5713 2.59473,12.7393 C2.38477,12.9492 2.12581,13.0542 1.81787,13.0542 C1.52393,13.0542 1.27897,12.9492 1.08301,12.7393 L0.74707,12.3193 L1.46094,10.4717 C1.46094,10.4157 1.47493,10.3667 1.50293,10.3247 C1.53092,10.2827 1.54492,10.2337 1.54492,10.1777 L2.67871,11.2905 M9.12451,7.1543 C9.34847,7.33626 9.46045,7.56022 9.46045,7.82617 C9.46045,8.09212 9.34847,8.33008 9.12451,8.54004 C8.90055,8.79199 8.6416,8.87598 8.34766,8.79199 C8.06771,8.79199 7.82275,8.70801 7.61279,8.54004 C7.15088,8.05013 6.73796,7.60221 6.37402,7.19629 C6.05208,6.86035 5.74064,6.54191 5.4397,6.24097 C5.13875,5.94002 4.94629,5.74756 4.8623,5.66357 C4.72233,5.48161 4.57186,5.46411 4.41089,5.61108 C4.24992,5.75806 4.24642,5.90153 4.40039,6.0415 L7.19287,8.95996 C7.41683,9.19792 7.51481,9.46037 7.48682,9.74731 C7.45882,10.0343 7.36084,10.2757 7.19287,10.4717 C6.95492,10.6396 6.69596,10.7236 6.41602,10.7236 C6.12207,10.7236 5.87712,10.6117 5.68115,10.3877 C5.10726,9.8138 4.60335,9.2819 4.16943,8.79199 C3.77751,8.38607 3.43107,8.00464 3.13013,7.64771 C2.82918,7.29077 2.65072,7.08431 2.59473,7.02832 C2.46875,6.88835 2.34977,6.86735 2.23779,6.96533 C2.12581,7.06331 2.11182,7.18229 2.1958,7.32227 C2.25179,7.39225 2.43026,7.58472 2.7312,7.89966 C3.03215,8.2146 3.35758,8.54004 3.70752,8.87598 C4.11344,9.2819 4.55436,9.74382 5.03027,10.2617 C5.24023,10.4857 5.33822,10.7411 5.32422,11.0281 C5.31022,11.315 5.18424,11.5565 4.94629,11.7524 C4.77832,11.9344 4.53337,12.0254 4.21143,12.0254 C3.95947,12.0254 3.72152,11.9064 3.49756,11.6685 L1.54492,9.61084 C1.54492,9.49886 1.48893,9.32389 1.37695,9.08594 C1.18099,8.66602 0.866048,8.35107 0.432129,8.14111 C0.32015,8.08512 0.138184,8.05713 -0.11377,8.05713 L-0.554688,8.05713 C-0.554688,7.97314 -0.554688,7.88916 -0.554688,7.80518 C-0.554688,7.72119 -0.582682,7.6512 -0.638672,7.59521 C-0.750651,7.35726 -0.894124,7.1613 -1.06909,7.00732 C-1.24406,6.85335 -1.44352,6.74837 -1.66748,6.69238 C-1.77946,6.5804 -1.94043,6.52441 -2.15039,6.52441 C-2.48633,6.52441 -2.78727,6.6084 -3.05322,6.77637 C-3.24919,6.37044 -3.56413,6.0695 -3.99805,5.87354 C-4.08203,5.87354 -4.16602,5.85954 -4.25,5.83154 C-4.33398,5.80355 -4.41797,5.78955 -4.50195,5.78955 C-4.71191,5.78955 -4.90088,5.80355 -5.06885,5.83154 C-5.23682,5.85954 -5.39079,5.90153 -5.53076,5.95752 C-5.71273,5.66357 -5.98568,5.41862 -6.34961,5.22266 C-6.43359,5.16667 -6.52808,5.13167 -6.63306,5.11768 C-6.73804,5.10368 -6.86051,5.06868 -7.00049,5.0127 C-7.32243,5.0127 -7.64787,5.12118 -7.97681,5.33813 C-8.30575,5.55509 -8.5402,5.81755 -8.68018,6.12549 L-8.93213,6.77637 L-9.96094,6.6084 L-6.83252,-1.39111 L-1.83545,-1.30713 L-4.25,2.43018 L-3.59912,2.80811 C-3.54313,2.8641 -3.35767,2.95858 -3.04272,3.09155 C-2.72778,3.22453 -2.32536,3.31901 -1.83545,3.375 C-1.38753,3.43099 -0.995605,3.3645 -0.659668,3.17554 C-0.32373,2.98657 -0.0157878,2.73812 0.26416,2.43018 L0.26416,2.34619 L1.46094,0.414551 L2.84668,0.498535 L6.87793,4.76074 L9.12451,7.1543 M-7.56738,-2.16797 L-12.2495,9.08594 L-13.5303,8.79199 C-13.6563,6.46842 -13.6318,4.50529 -13.4568,2.90259 C-13.2818,1.29989 -13.0824,-0.0193685 -12.8584,-1.05518 C-12.5645,-2.23096 -12.2495,-3.20378 -11.9136,-3.97363 L-7.56738,-2.16797"/>
</g>

<g fill="#f7901e" fill-opacity="1" stroke="none" transform="matrix(1,0,0,1,0,0)"
font-family="MS Shell Dlg 2" font-size="7.8" font-weight="400" font-style="normal" 
>
</g>
</g>
</svg>
